Suru++-Ubuntu/apps/scalable/goa-account-google.svg

<svg width="256" height="256" version="1.1" viewBox="0 0 256 256" xmlns="http://www.w3.org/2000/svg" xmlns:xlink="http://www.w3.org/1999/xlink">
 <defs>
  <path id="a" d="m44.5 20h-20.5v8.5h11.8c-1.1 5.4-5.7 8.5-11.8 8.5-7.2 0-13-5.8-13-13s5.8-13 13-13c3.1 0 5.9 1.1 8.1 2.9l6.4-6.4c-3.9-3.4-8.9-5.5-14.5-5.5-12.2 0-22 9.8-22 22s9.8 22 22 22c11 0 21-8 21-22 0-1.3-0.2-2.7-0.5-4z"/>
  <clipPath id="b-9">
   <use width="100%" height="100%" overflow="visible" xlink:href="#a"/>
  </clipPath>
  <linearGradient id="linearGradient1108" x1="296" x2="296" y1="-212" y2="236" gradientUnits="userSpaceOnUse">
   <stop style="stop-color:#ffffff" offset="0"/>
   <stop style="stop-color:#ffffff;stop-opacity:.09803922" offset=".125"/>
   <stop style="stop-color:#000000;stop-opacity:.09803922" offset=".925"/>
   <stop style="stop-color:#000000;stop-opacity:.49803922" offset="1"/>
  </linearGradient>
  <clipPath id="clipPath1082-3">
   <path d="M 361.9375,-212 C 507.2348,-212 528,-191.28677 528,-46.125 V 70.125 C 528,215.28618 507.2348,236 361.9375,236 H 214.0625 C 68.7652,236 48,215.28618 48,70.125 V -46.125 C 48,-191.28677 68.7652,-212 214.0625,-212 Z" style="fill:#8c59d9"/>
  </clipPath>
  <filter id="filter931" x="-.01" y="-.01" width="1.023" height="1.025" style="color-interpolation-filters:sRGB">
   <feGaussianBlur stdDeviation="1.16"/>
  </filter>
  <filter id="filter925" x="-.02" y="-.03" width="1.046" height="1.05" style="color-interpolation-filters:sRGB">
   <feGaussianBlur stdDeviation="2.32"/>
  </filter>
 </defs>
 <g transform="translate(-2.6968134,-1.9716796)">
  <path d="m165.23356 20.403668c72.64865 0 83.03125 10.356616 83.03125 82.937502v58.125c0 72.58059-10.3826 82.9375-83.03125 82.9375h-73.937497c-72.64865 0-83.03125-10.35691-83.03125-82.9375v-58.125c0-72.580886 10.3826-82.937502 83.03125-82.937502z" style="filter:url(#filter925);opacity:.2"/>
  <path d="m165.23356 19.403668c72.64865 0 83.03125 10.356616 83.03125 82.937502v58.125c0 72.58059-10.3826 82.9375-83.03125 82.9375h-73.937497c-72.64865 0-83.03125-10.35691-83.03125-82.9375v-58.125c0-72.580886 10.3826-82.937502 83.03125-82.937502z" style="filter:url(#filter931);opacity:.1"/>
  <path d="m165.23356 18.403668c72.64865 0 83.03125 10.356616 83.03125 82.937502v58.125c0 72.58059-10.3826 82.9375-83.03125 82.9375h-73.937497c-72.64865 0-83.03125-10.35691-83.03125-82.9375v-58.125c0-72.580886 10.3826-82.937502 83.03125-82.937502z" style="fill:#f7f7f7"/>
  <path transform="matrix(.5 0 0 .5 -15.735187 124.40367)" d="M 361.9375,-212 C 507.2348,-212 528,-191.28677 528,-46.125 V 70.125 C 528,215.28618 507.2348,236 361.9375,236 H 214.0625 C 68.7652,236 48,215.28618 48,70.125 V -46.125 C 48,-191.28677 68.7652,-212 214.0625,-212 Z" clip-path="url(#clipPath1082-3)" style="fill:none;opacity:.4;stroke-linecap:round;stroke-linejoin:round;stroke-width:8;stroke:url(#linearGradient1108)"/>
  <g transform="translate(18.506026,-9.8698804)">
   <path transform="matrix(3.6363636,0,0,3.6363636,24.304241,53.000823)" d="m0 37v-26l17 13z" clip-path="url(#b-9)" style="fill:#fbbc05"/>
   <path transform="matrix(3.6363636,0,0,3.6363636,24.304241,53.000823)" d="m0 11 17 13 7-6.1 24-3.9v-14h-48z" clip-path="url(#b-9)" style="fill:#ea4335"/>
   <path transform="matrix(3.6363636,0,0,3.6363636,24.304241,53.000823)" d="m0 37 30-23 7.9 1 10.1-15v48h-48z" clip-path="url(#b-9)" style="fill:#34a853"/>
   <path transform="matrix(3.6363636,0,0,3.6363636,24.304241,53.000823)" d="m48 48-31-24-4-3 35-10z" clip-path="url(#b-9)" style="fill:#4285f4"/>
  </g>
 </g>
</svg>

<svg xmlns="http://www.w3.org/2000/svg" xmlns:xlink="http://www.w3.org/1999/xlink" width="256" height="256" version="1.1" viewBox="0 0 256 256">
 <defs>
  <path id="a" d="M 44.5,20 H 24 v 8.5 H 35.8 C 34.7,33.9 30.1,37 24,37 16.8,37 11,31.2 11,24 c 0,-7.2 5.8,-13 13,-13 3.1,0 5.9,1.1 8.1,2.9 L 38.5,7.5 C 34.6,4.1 29.6,2 24,2 11.8,2 2,11.8 2,24 c 0,12.2 9.8,22 22,22 11,0 21,-8 21,-22 0,-1.3 -0.2,-2.7 -0.5,-4 z"/>
  <clipPath id="b-9">
   <use width="100%" height="100%" x="0" y="0" overflow="visible" xlink:href="#a"/>
  </clipPath>
  <linearGradient id="linearGradient1108" x1="296" x2="296" y1="-212" y2="236" gradientUnits="userSpaceOnUse" xlink:href="#linearGradient1013"/>
  <linearGradient id="linearGradient1013">
   <stop offset="0" style="stop-color:#ffffff"/>
   <stop style="stop-color:#ffffff;stop-opacity:0.09803922" offset=".125"/>
   <stop style="stop-color:#000000;stop-opacity:0.09803922" offset=".925"/>
   <stop offset="1" style="stop-color:#000000;stop-opacity:0.49803922"/>
  </linearGradient>
  <clipPath id="clipPath1082-3" clipPathUnits="userSpaceOnUse">
   <path d="M 361.9375,-212 C 507.2348,-212 528,-191.28677 528,-46.125 V 70.125 C 528,215.28618 507.2348,236 361.9375,236 H 214.0625 C 68.7652,236 48,215.28618 48,70.125 V -46.125 C 48,-191.28677 68.7652,-212 214.0625,-212 Z" style="fill:#8c59d9"/>
  </clipPath>
  <filter style="color-interpolation-filters:sRGB" id="filter931" width="1.023" height="1.025" x="-.01" y="-.01">
   <feGaussianBlur stdDeviation="1.16"/>
  </filter>
  <filter style="color-interpolation-filters:sRGB" id="filter925" width="1.046" height="1.05" x="-.02" y="-.03">
   <feGaussianBlur stdDeviation="2.32"/>
  </filter>
 </defs>
 <g transform="translate(-2.6968134,-1.9716796)">
  <path d="m 165.23356,20.403668 c 72.64865,0 83.03125,10.356616 83.03125,82.937502 v 58.125 c 0,72.58059 -10.3826,82.9375 -83.03125,82.9375 H 91.296063 c -72.64865,0 -83.0312497,-10.35691 -83.0312497,-82.9375 v -58.125 c 0,-72.580886 10.3825997,-82.937502 83.0312497,-82.937502 z" style="opacity:0.2;filter:url(#filter925)"/>
  <path style="opacity:0.1;filter:url(#filter931)" d="m 165.23356,19.403668 c 72.64865,0 83.03125,10.356616 83.03125,82.937502 v 58.125 c 0,72.58059 -10.3826,82.9375 -83.03125,82.9375 H 91.296063 c -72.64865,0 -83.0312497,-10.35691 -83.0312497,-82.9375 v -58.125 c 0,-72.580886 10.3825997,-82.937502 83.0312497,-82.937502 z"/>
  <path style="fill:#f7f7f7" d="m 165.23356,18.403668 c 72.64865,0 83.03125,10.356616 83.03125,82.937502 v 58.125 c 0,72.58059 -10.3826,82.9375 -83.03125,82.9375 H 91.296063 c -72.64865,0 -83.0312497,-10.35691 -83.0312497,-82.9375 v -58.125 c 0,-72.580886 10.3825997,-82.937502 83.0312497,-82.937502 z"/>
  <path d="M 361.9375,-212 C 507.2348,-212 528,-191.28677 528,-46.125 V 70.125 C 528,215.28618 507.2348,236 361.9375,236 H 214.0625 C 68.7652,236 48,215.28618 48,70.125 V -46.125 C 48,-191.28677 68.7652,-212 214.0625,-212 Z" clip-path="url(#clipPath1082-3)" transform="matrix(0.5,0,0,0.5,-15.735187,124.40367)" style="opacity:0.4;fill:none;stroke:url(#linearGradient1108);stroke-width:8;stroke-linecap:round;stroke-linejoin:round"/>
  <g transform="translate(18.506026,-9.8698804)">
   <path d="M 0,37 V 11 l 17,13 z" clip-path="url(#b-9)" transform="matrix(3.6363636,0,0,3.6363636,24.304241,53.000823)" style="fill:#fbbc05"/>
   <path d="M 0,11 17,24 24,17.9 48,14 V 0 H 0 Z" clip-path="url(#b-9)" transform="matrix(3.6363636,0,0,3.6363636,24.304241,53.000823)" style="fill:#ea4335"/>
   <path d="M 0,37 30,14 37.9,15 48,0 V 48 H 0 Z" clip-path="url(#b-9)" transform="matrix(3.6363636,0,0,3.6363636,24.304241,53.000823)" style="fill:#34a853"/>
   <path d="M 48,48 17,24 13,21 48,11 Z" clip-path="url(#b-9)" transform="matrix(3.6363636,0,0,3.6363636,24.304241,53.000823)" style="fill:#4285f4"/>
  </g>
 </g>
</svg>
